X:100
T: AUF DEM SCHEITERHAUFEN KLAGET BITTERLICH
N: B0129
O: Europa, Mitteleuropa, Deutschland
R: Ballade, Romanze
M: 3/4
L: 1/8
K: E
B,B, | EF=G2BB | A=GF2
GF | E2=G2FD | E2z2
B,B, | EF=G2BB | A=GF2
GF | E2=G2FD | E2z2
=GA | B2B2=cB | BAA2
BA | =G2B2AG | F4
=GF | EF=G2FG | BAA2
=GF | E2=G2FD | E4

@@@ Tune index: 1903
